X: 42
T: 30 Year, The
R: jig
M: 6/8
K: Gmajor
DED FEF|GBG D2D|EcB AGE|FGA4|
DED GEG|GBG D2D|EcB AGE|FGG4:|
gfg agf|g3 d2d|egf edc|BAG A3|
gfg agf|g3 d2d|egf edB|Bgf edB|
cBA B2B|ced BAB|cBc eag|fgg4:|

